X:41
T:Moon and Seven Stars
S:Sarah Comer
Z:abc-transcription Josh Larios <hades@elsewhere.org>, 2014.01.27
M:6/8
L:1/8
K:D
|: A | "D"d2A AGF | "G"GAB "D"A2A | "G"Bcd "Em"efg | "A"fed cBA |
"D"d2A AGF | "G"GAB "D"A2A | "G"Bcd efg |1 "A"Adc "D"d2 :|2 "A"Adc "D"d3 |
|: "A"e2A e2A | efg "D"f3 | "A"efg "D"fed | "G"cdB "A"A2A |
"G"BGB "D"A2A | "G"BGB "D"A2A | "G"Bcd efg |1 "A"Adc "D"d3 :|2 "A"Adc "D"d2 |]

